X:121
T:Mathematician, The
O:scotland
R:Hornpipe
M:4/4
C:J. Scott Skinner
K:D
G|\
F>G ^G>A f>d A>F|G>A _B>=B g>e B>d|\
c>b a>g f>e d>c| (3dfe (3dcB (3ABA (3GFE|
F>G ^G>A (3fed (3cBA|G>A _B>=B (3gfe (3dcB|\
(3cba (3gfe (3dcB (3ABc|(3dAf (3dAF D3||
a|\
d'>a f>d A>F D>=C|B,>^D E>G B>e g>b|\
e'>b g>e B>G E>D|C>E A>c e>a c'>e'|
f'>d' a>f d>A F>D|G>B d>g b>d' g'>b|\
(3ad'c' (3bag (3fgf (3gfe|(3dfa (3d'af d3||
